X: 3231
T: Mrs Christie's Strathspey.
C: by Mr Marshall.
%R: strathspey
B: Niel Gow & Sons "Complete Repository" v.3 p.23 #1
Z: 2021 John Chambers <jc:trillian.mit.edu>
M: C|
L: 1/8
K: A
% - - - - - - - - - -
V: 1 staves=2
c/d/ |\
e<ATe>c (eAAc/)d/ | e<ATe>c d=GGc/d/ | e<Ae>c e<Ae>c | B=gdg BGG :| B | Aa g/a/b a>Ae>c | Aa g/a/b =gd~dB |
Aa g/a/b af=ge | fdec d=GGB || Aa g/a/b a>ce>c | Aa g/a/b =gd~dB | Aa g/a/b .a(f=g)(e | f)(de).c d=GG |]
% - - - - - - - - - -
V: 2 clef=bass middle=d
z | a2a2 a2a2 | a2a2 =g2g2 | a2a2 a2a2 | =g2g2 g2g :| z | a2a2 a2a2 | a2a2 =g2g2 |
a2a2 a2a2 | a2a2 =g2g2 ||  a2a2 a2a2 | a2a2 =g2g2 | a2a2 a2a2 | a2a2 =g2g |]


